!!!COM: Janáček, Leoš [Leo Eugen]
!!!OTL: Lašské tance (Lachian Dances) for Orchestra
!!!OMV: No. 1: Starodavny (Old-Time Dance)
!!!example: 123
!!!work: Jan-11
**kern	**kern	**dynam
*part1	*part1	*part1
*staff2	*staff1	*
*I"Piano	*	*
*I'Pno.	*	*
*clefF4	*clefG2	*
*k[f#c#g#d#a#]	*k[f#c#g#d#a#]	*
*B:	*B:	*
*M2/4	*M2/4	*
*MM121	*MM121	*
=63	=63	=63
*^	*	*
12r	(4Fn^	8ddn'^L 8dddn	f
12BL	.	.	.
.	.	(8ddJ 8ddd	.
12dnJ	.	.	.
12r	4G#)	8bbL)	.
12BL	.	.	.
.	.	8bb'J	.
12dJ	.	.	.
=64	=64	=64	=64
12r	(4Fn^	8ddn'^L 8dddn	.
12BL	.	.	.
.	.	(8ddJ 8ddd	.
12dnJ	.	.	.
12r	4G#)	8bbL)	.
12BL	.	.	.
.	.	8bb'J	.
12dJ	.	.	.
=65	=65	=65	=65
12r	(4Fn^	8ddn'^L 8dddn	.
12BL	.	.	.
.	.	(8ddJ 8ddd	.
12dnJ	.	.	.
12r	4G#)	8bbL)	.
12BL	.	.	.
.	.	8bb'J	.
12dJ	.	.	.
=66	=66	=66	=66
12r	4G#X^	8r	<
12BL	.	.	.
.	.	(8bb	.
12dnJ	.	.	.
8B^ 8d 8fn	4ryy	8gg#X'^) 8ggg#X	.
8r	.	8r	.
=67	=67	=67	=67
12r	(4Fn^	8ddn'^L 8dddn	[ f
12BL	.	.	.
.	.	(8ddJ 8ddd	.
12dnJ	.	.	.
12r	4G#)	8bbL)	.
12BL	.	.	.
.	.	8bb'J	.
12dJ	.	.	.
=68	=68	=68	=68
12r	(4Fn^	8ddn'^L 8dddn	.
12BL	.	.	.
.	.	(8ddJ 8ddd	.
12dnJ	.	.	.
12r	4G#)	8bbL)	.
12BL	.	.	.
.	.	8bb'J	.
12dJ	.	.	.
=69	=69	=69	=69
12r	(4Fn^	8ddn'^L 8dddn	.
12BL	.	.	.
.	.	(8ddJ 8ddd	.
12dnJ	.	.	.
12r	4G#)	8bbL)	.
12BL	.	.	.
.	.	8bb'J	.
12dJ	.	.	.
=70	=70	=70	=70
12r	4G#X^	8r	<
12BL	.	.	.
.	.	(8bb	.
12dnJ	.	.	.
8B^ 8d 8fn	4ryy	8gg#X'^) 8ggg#X	.
8r	.	8r	.
=71	=71	=71	=71
12r	4Fn^	8r	[ <
12G#XL	.	.	.
.	.	(8ddn	.
12BJ	.	.	.
8G#^ 8B 8dn	4ryy	8b'^) 8bb	.
8r	.	8r	.
=72	=72	=72	=72
12r	4G#^	8r	[ <
12BL	.	.	.
.	.	(8bb	.
12dnJ	.	.	.
8B^ 8d 8fn	4ryy	8gg#X'^) 8ggg#X	.
8r	.	8r	.
*v	*v	*	*
=73	=73	=73
(12Fn^L	(16fnLL	[
.	16bJJ)	.
12G#	.	.
.	8r	.
12BJ)	.	.
(12G#X^L	(16bLL	.
.	16ffnJJ)	.
12B	.	.
.	8r	.
12dnJ)	.	.
=74	=74	=74
(12G#^L	(16ffnLL	.
.	16bJJ) 16gg#	.
12B	.	.
.	8r	.
12dnJ)	.	.
(12G#^L 12B	(16bbLL	.
.	16ffnJJ) 16dddn	.
12d	.	.
.	8r	.
12fnJ)	.	.
=	=	=
*-	*-	*-
!!!system-decoration: {(s1,s2)}
!!!CDT: 1854/07/03-1928/08/12
!!!CBL: Hukvaldy, Moravia
!!!CDL: Moravaská Ostrava, Czech Republic
!!!CNT: Czech
!!!AGN: Orchestral; Symphonic
!!!MCN: Neumann, František
!!!MDT: 1926/02/21
!!!MGN: Czech Philharmonic Orchestra
!!!MLC: Prague, Czechia
!!!MPD: 1926
!!!MPN:
!!!ODT: 1891
!!!PDT: 1928
!!!excerpt-start-measure: 63
!!!excerpt-end-measure: 74
!!!excerpt-start-time: 1:53
!!!excerpt-end-time: 2:03
!!!EEV: 2020/01/22
!!!ONB: Converted from MusicXML on 2020/01/22
